brandFactory_export/2.Regular/Pin chincheta _2Regular.svg

<?xml version="1.0" encoding="UTF-8"?>
<svg width="24px" height="24px" viewBox="0 0 24 24" version="1.1" xmlns="http://www.w3.org/2000/svg" xmlns:xlink="http://www.w3.org/1999/xlink">
    <title>2.Regular/Pin chincheta _2Regular</title>
    <g id="Symbols" stroke="none" stroke-width="1" fill="none" fill-rule="evenodd">
        <g id="2.Regular/Pin-chincheta-_2Regular" fill="#5CB615" fill-rule="nonzero">
            <path d="M19.8890756,9.16302521 C19.7176471,9.18319328 19.5596639,9.25714286 19.4386555,9.38151261 L15.9361345,12.907563 C15.7546218,13.0890756 15.6773109,13.3579832 15.7378151,13.610084 C16.205042,15.6537815 15.5058824,17.6336134 13.6033613,19.5630252 L8.89747899,14.8302521 C8.88403361,14.8134454 8.87731092,14.789916 8.8605042,14.7731092 C8.84369748,14.7563025 8.82016807,14.7495798 8.80336134,14.7361345 L4.19495798,10.1008403 L4.22857143,10.0638655 C6.11764706,8.16134454 8.09411765,7.44201681 10.1008403,7.91932773 C10.3529412,7.98319328 10.6184874,7.90588235 10.8033613,7.71764706 L14.3058824,4.19159664 C14.4302521,4.06722689 14.5042017,3.90588235 14.5210084,3.73109244 C14.5915966,3.00504202 14.9243697,2.30588235 15.5495798,1.61344538 L22.0134454,8.11092437 C21.3378151,8.7394958 20.6420168,9.08571429 19.8890756,9.16302521 M23.2369748,7.21008403 L16.4436975,0.383193277 C15.9495798,-0.114285714 15.1630252,-0.137815126 14.6453782,0.383193277 C13.7613445,1.27394958 13.2302521,2.25546218 13.0655462,3.30756303 L10.0302521,6.36638655 C8.28235294,6.06386555 5.79495798,6.35630252 3.16638655,9.00168067 L3.12941176,9.04201681 C2.84705882,9.32436975 2.69579832,9.69747899 2.69579832,10.097479 C2.69579832,10.4941176 2.85042017,10.8672269 3.12941176,11.1495798 L7.2605042,15.3109244 L0.221848739,22.3361345 C-0.0705882353,22.6285714 -0.0739495798,23.1092437 0.218487395,23.405042 C0.366386555,23.5529412 0.557983193,23.6268908 0.752941176,23.6268908 C0.941176471,23.6268908 1.13613445,23.5529412 1.28067227,23.4084034 L8.32268908,16.3798319 L12.5445378,20.6352941 C12.8268908,20.9210084 13.1966387,21.0655462 13.5764706,21.0655462 C13.9764706,21.0655462 14.3831933,20.9042017 14.712605,20.5714286 C16.8336134,18.4336134 17.7008403,16.1210084 17.2840336,13.6907563 L20.3226891,10.6285714 C21.3747899,10.4504202 22.3630252,9.90588235 23.2773109,8.98487395 C23.502521,8.75966387 23.6268908,8.45714286 23.6268908,8.13445378 C23.6235294,7.78823529 23.4890756,7.46218487 23.2369748,7.21008403" id="Pin-chincheta-_2Regular"></path>
        </g>
    </g>
</svg>

<svg width="24" height="24" viewBox="0 0 24 24" xmlns="http://www.w3.org/2000/svg"><path d="M19.89 9.163a.743.743 0 00-.451.219l-3.503 3.526a.752.752 0 00-.198.702c.467 2.044-.232 4.024-2.135 5.953L8.897 14.83c-.013-.017-.02-.04-.036-.057-.017-.017-.04-.023-.058-.037l-4.608-4.635.034-.037C6.118 8.16 8.094 7.442 10.1 7.919a.732.732 0 00.702-.201l3.503-3.526a.747.747 0 00.215-.46c.07-.727.403-1.426 1.029-2.119l6.463 6.498c-.675.628-1.371.975-2.124 1.052m3.348-1.953L16.444.383a1.25 1.25 0 00-1.799 0c-.884.89-1.415 1.872-1.58 2.925L10.03 6.366c-1.748-.302-4.235-.01-6.864 2.636l-.037.04a1.476 1.476 0 00-.433 1.055c0 .397.154.77.433 1.053l4.132 4.16-7.04 7.026a.76.76 0 00-.003 1.069.75.75 0 001.063.003l7.042-7.028 4.222 4.255c.282.286.652.43 1.031.43.4 0 .807-.16 1.137-.494 2.12-2.137 2.988-4.45 2.571-6.88l3.039-3.062c1.052-.179 2.04-.723 2.954-1.644.226-.225.35-.528.35-.85a1.312 1.312 0 00-.39-.925" fill="#5CB615" fill-rule="nonzero"/></svg>
